!!!COM: Bach, Johann Sebastian
!!!CDT: 1685/3//-1750/7/28/
!!!OTL@@DE: Es ist das Heil uns kommen her
!!!AGN: 4-Part Chorale
!!!SCT: BH 290
!!!SCT: BWV 9
**harm	**root	**kern	**kern	**kern	**kern
!	!	!bass	!tenor	!alto	!soprno
*	*Iorgan	*Iorgan	*Iorgan	*Iorgan	*Iorgan
*M4/4	*M4/4	*M4/4	*M4/4	*M4/4	*M4/4
*met(c)	*met(c)	*met(c)	*met(c)	*met(c)	*met(c)
*MM60	*MM60	*MM60	*MM60	*MM60	*MM60
*k[f#c#g#d#a#]	*k[f#c#g#d#a#]	*k[f#c#g#d#a#]	*k[f#c#g#d#a#]	*k[f#c#g#d#a#]	*k[f#c#g#d#a#]
*B:	*B:	*B:	*B:	*B:	*B:
*>[A,A,B]	*>[A,A,B]	*>[A,A,B]	*>[A,A,B]	*>[A,A,B]	*>[A,A,B]
*>A	*>A	*>A	*>A	*>A	*>A
I	4EE	4BB	4B	4d#	4f#
=1	=1	=1	=1	=1	=1
I	4EE	4BB	4F#	8c#	4f#
.	.	.	.	8d#	.
V7b	4BB	4AA#	4c#	4e	4f#
I	8EE	4BB	4B	8d#	8f#
IVc	8AA	.	.	8e	8g#
V7b/IV	4EE	4DD#	4B	4f#	4a
=2	=2	=2	=2	=2	=2
IV	8AA	4EE	8B	8f#	4g#
iib	8FF#	.	8c#	8e	.
-IIIb	8GG	8FF#	4d	8A	4f#
viio7/-VII	8CC#	8GG#	.	8B	.
-VII;	4DD;	4AA;	4A;	4c#;	4e;
Vb	4BB	4AA#	4F#	4c#	8f#
.	.	.	.	.	8e
=3	=3	=3	=3	=3	=3
I	4EE	4.BB	8F#	4B	8d#
.	.	.	8E	.	8c#
I	4EE	.	4D#	4F#	8B
.	.	8AA#	.	.	8c#
vi	4CC#	8GG#	4G#	4B	4d#
.	.	8AA#	.	.	.
V7d/V	4FF#	8BB	4C#	4G#	4e#
.	.	8C#	.	.	.
=4	=4	=4	=4	=4	=4
Vb	8BB	8AA#	8C#	4.c#	4f#
V	8BB	8FF#	8F#	.	.
V/V	4FF#	4C#	4E#	.	4g#
.	.	.	.	8B	.
V;	4BB;	4FF#;	4C#;	4A#;	4f#;
=:|!	=:|!	=:|!	=:|!	=:|!	=:|!
*>B	*>B	*>B	*>B	*>B	*>B
I	4EE	8BB	4D#	8B	4f#
.	.	8AA#	.	8c#	.
=5	=5	=5	=5	=5	=5
vi	4CC#	4GG#	4G#	8d#	4b
.	.	.	.	8e#	.
V	4BB	4FF#	8A#	4f#	4a#
.	.	.	8B	.	.
V/V	4FF#	8C#	4c#	8e#	4g#
.	.	8D#	.	8d#	.
V7d	4BB	8E	4F#	4c#	4a#
.	.	8C#	.	.	.
!!linebreak: 2
=6	=6	=6	=6	=6	=6
Ib	8EE	8D#	4F#	8f#	8b
I7	8EE	8BB	.	8d#	8a#
V/V	4FF#	4C#	8c#	4e#	4g#
.	.	.	8B	.	.
V;	4BB;	4FF#;	4A#;	4c#;	4f#;
I	4EE	8BB	4B	8d#	4f#
.	.	8C#	.	8e	.
=7	=7	=7	=7	=7	=7
Ib	8EE	8D#	8F#	8f#	4b
IV	8AA	8E	8G#	8e	.
v	4BB	4F#	4A	8d#	4f#
.	.	.	.	8c#	.
V7d/ii	8CC#	8F#	8G#	8B#	4g#
viio7c	8DD#	8E	8A#	8c#	.
viib/ii	8EE#	8D#	8B#	8d#	8d#
ii	8FF#	8C#	8c#	8G#	8e
=8	=8	=8	=8	=8	=8
V7b/ii	4CC#	4BB#	8d#	8G#	4f#
.	.	.	8G#	8d#	.
ii	4FF#	4C#	4G#	8d#	4e
.	.	.	.	8c#	.
VI;	4CC#;	4GG#;	4G#;	8c#	4d#;
.	.	.	.	8B#;	.
VI	4CC#	8G#	4G#	4B#	4d#
.	.	8F#	.	.	.
=9	=9	=9	=9	=9	=9
iib	8FF#	8E	8G#	8c#	8c#
Ib	8EE	8D#	8F#	8B	8d#
viiob	4DD#	4C#	4E	8A#	4e
.	.	.	.	8G#	.
Ic	8EE	8D#	4B	8F#	4d#
IV7	8AA	8E	.	8G#	.
V	4BB	4F#	8F#	4A#	4c#
.	.	.	8E	.	.
=10	=10	=10	=10	=10	=10
viioD7d/-VII	4CC#	8F#	4D	4B	4G#
.	.	8E#	.	.	.
V	4BB	4F#	8C#	4F#	4A#
.	.	.	8E	.	.
I;	4EE;	4BB;	4D#;	4F#;	4B;
==	==	==	==	==	==
*-	*-	*-	*-	*-	*-
!!chor2scor: -l 2 -s 0.6 -o %b.pmx
!!!YEC: Copyright 1994, David Huron
!!!YEC: Changes/Additions 2001 by Craig Stuart Sapp
!!!YEN: United States of America
!!!SMA: 371 Bach Chorales, edited by Ludwig Erk, C.F. Peters
!!!PDT: 1850, 1865
!!!ONB: Harmony and Root analysis done manually by Craig Sapp
